X:3
T:Amerikatur 2
O:Norway
A:Sor Tr\ondelag, R\oros
C:Traditional
L:1/8
M:3/4
Q:1/4=145
R:R\oros Pols
K:D
% %rightmargin 11.5cm
"Intro"|\
"A7"A>B cd e>c | "G"d2 d2-d3/
% %rightmargin 2.78cm
%P:A
g/ |: "D"f>e d>c d>f | "G"g2 B7/ B/ | "A7"A>B cd e>c | "D"d>c d>e f>g |
"D"f>e d>c d>f | "G"g2 B7/ B/ | "A7"A>B cd e>c | "G"d2 d4 :|
%P:B
|: "D7"D>F FD F>F | "G"DG GF G>B | "A7"A>B cd e>c | "D"d>c de f>f |
 "D7"D>F FD F>F | "G"DG GF G>B | "A7"A>B cd e>c | "G"d2 d4 :|

